X:1
T: The Happy Return
N:
C:Gary Roodman
S:Tune is "Casady Jig"
A:
O:
R:
M:6/8
K:Am
I:speed 165
%W: A1
% voice 1 (1 lines, 33 notes)
K:Am
M:6/8
L:1/16
G2 |B2 e2 B2 A4 ^F2 E6 G2 A2 B2 c2 A2 B2 c4 d2 B6 G6 |B2 A2 G2 B4 c2 A6 F6 F2 G2 A2 E4 B2 A6 ^F2 G2 A2 |
%W: A2
% voice 1 (1 lines, 31 notes)
B2 e2 B2 A4 ^F2 E6 G2 A2 B2 c2 A2 B2 c4 d2 B6 G6 |B2 A2 G2 B4 c2 A6 F6 F2 G2 A2 E4 B,2 A,6 A4 B2 |
%W: B1
% voice 1 (1 lines, 39 notes)
c2 B2 A2 e4 A2 c2 e2 c2 A2 B2 c2 B4 c2 d4 e2 g2 f2 e2 d4 B2 |E2 A2 c2 e4 ^d2 e2 c2 A2 F4 ^D2 E2 A2 c2 E2 ^G2 B2 A6 A4 B2 |
%W: B2
% voice 1 (1 lines, 38 notes)
c2 B2 A2 e4 A2 c2 e2 c2 A2 B2 c2 B4 c2 d4 e2 g2 f2 e2 d4 B2 |E2 A2 c2 e4 ^d2 e2 c2 A2 F4 ^D2 E2 A2 c2 E2 ^G2 B2 A6 A4 ||
